!!!COM: Palestrina, Giovanni Perluigi da
!!!OPR: Sacerdotes Domini
!!!OTL: Sanctus
**kern	**kern	**kern	**kern	**kern	**kern
*Ibass	*Ibarit	*Itenor	*Itenor	*Icalto	*Icant
!Bassus	!Baritone	!Tenor 2	!Tenor 1	!Altus	!Cantus
*clefF4	*clefF4	*clefGv2	*clefGv2	*clefG2	*clefG2
*k[]	*k[]	*k[]	*k[]	*k[]	*k[]
*G:mix	*G:mix	*G:mix	*G:mix	*G:mix	*G:mix
*M4/2	*M4/2	*M4/2	*M4/2	*M4/2	*M4/2
=1	=1	=1	=1	=1	=1
0r	0r	0r	0r	1.g	1r
.	.	.	.	.	[1dd
.	.	.	.	2g	.
=2	=2	=2	=2	=2	=2
0r	0r	0r	0r	2f	2dd]
.	.	.	.	2d	2dd
.	.	.	.	[1f	2cc
.	.	.	.	.	2a
=3	=3	=3	=3	=3	=3
1.A	0r	0r	0r	2f]	1.cc
.	.	.	.	4e	.
.	.	.	.	4d	.
.	.	.	.	2.e	.
2A	.	.	.	.	4b
.	.	.	.	4c	4a
=4	=4	=4	=4	=4	=4
2G	0r	0r	0r	2d	2b
2E	.	.	.	1e	2g
[1G	.	.	.	.	[1b
.	.	.	.	4d	.
.	.	.	.	4c	.
=5	=5	=5	=5	=5	=5
2G]	0r	0r	0r	2d	2b]
4F	.	.	.	1e	4a
4E	.	.	.	.	4g
1F	.	.	.	.	1a
.	.	.	.	2d	.
=6	=6	=6	=6	=6	=6
0C	1.c	0r	0r	0e	1g
.	.	.	.	.	2.g
.	2c	.	.	.	.
.	.	.	.	.	4a
=7	=7	=7	=7	=7	=7
0G	2B	1r	0r	2r	4b
.	.	.	.	.	4a
.	2G	.	.	1g	4b
.	.	.	.	.	4cc
.	[1B	[1d	.	.	1dd
.	.	.	.	2g	.
=8	=8	=8	=8	=8	=8
2.D	2B]	2d]	0r	4f	2dd
.	.	.	.	4d	.
.	4A	2d	.	2.a	1ff
4E	4G	.	.	.	.
1F	1A	2c	.	.	.
.	.	.	.	4b	.
.	.	2A	.	[2cc	4ee
.	.	.	.	.	4dd
=9	=9	=9	=9	=9	=9
1C	1G	1.c	1.e	2cc]	1ee
.	.	.	.	4b	.
.	.	.	.	4a	.
1C	1r	.	.	2g	1ee
.	.	4B	2e	[2a	.
.	.	4A	.	.	.
=10	=10	=10	=10	=10	=10
2D	0r	1B	2d	2a]	1r
2E	.	.	2B	2g	.
2F	.	1A	[1d	[1f	2r
2D	.	.	.	.	[2a
=11	=11	=11	=11	=11	=11
2.F	1r	0r	2d]	1f]	4a]
.	.	.	.	.	4b
.	.	.	4c	.	2.cc
4G	.	.	4B	.	.
1A	2r	.	1c	1e	.
.	.	.	.	.	4b
.	[2e	.	.	.	[2a
=12	=12	=12	=12	=12	=12
1E	2e]	0r	1B	2r	2a]
.	2e	.	.	1e	2g#
1A	1c	.	1r	.	[1a
.	.	.	.	2e	.
=13	=13	=13	=13	=13	=13
2F	1d	2r	0r	1f	1a]
2D	.	1f	.	.	.
1F	2d	.	.	1a	1r
.	[2c	2f	.	.	.
=14	=14	=14	=14	=14	=14
1G	2c]	1d	1r	0g	1dd
.	2B	.	.	.	.
1C	2.c	1e	2r	.	2cc
.	.	.	[2g	.	2cc
.	8B	.	.	.	.
.	8A	.	.	.	.
=15	=15	=15	=15	=15	=15
0r	1G	2e	2g]	1r	1b
.	.	1d	2g	.	.
.	1A	.	1e	2r	2a
.	.	2c#	.	2a	[2ee
=16	=16	=16	=16	=16	=16
2.D	0r	2.d	1f	2a	4ee]
.	.	.	.	.	4dd
.	.	.	.	2a	1dd
4E	.	8c	.	.	.
.	.	8B	.	.	.
4F	.	1A	2f	1a	.
4G	.	.	.	.	.
2A	.	.	[2e	.	2cc
=17	=17	=17	=17	=17	=17
2E	1r	1B	2e]	1.g	1b
2G	.	.	2d	.	.
1C	2r	1r	2.e	.	2.g
.	2c	.	.	4e	.
.	.	.	8d	4f	4a
.	.	.	8c	.	.
=18	=18	=18	=18	=18	=18
1G	2d	0r	1B	4g	4b
.	.	.	.	4a	4cc
.	2d	.	.	1g	2.dd
2E	2e	.	1c	.	.
.	.	.	.	.	4cc
2A	2c	.	.	2f#	[2cc
=19	=19	=19	=19	=19	=19
1G	1d	2r	0r	0g	2cc]
.	.	2d	.	.	2b
2r	2.c	2e	.	.	2cc
2C	.	2e	.	.	2ee
.	4B	.	.	.	.
=20	=20	=20	=20	=20	=20
2D	2A	2f	1r	2r	2dd
2D	1d	2d	.	2a	2ff
1A	.	1e	2r	2a	1ee
.	2c#	.	2e	2a	.
=21	=21	=21	=21	=21	=21
1D	1d	2.d	2f	1a	1r
.	.	.	2f	.	.
.	.	4c	.	.	.
2E	1r	2B	2g	1g	2r
2C	.	[2e	2e	.	2cc
=22	=22	=22	=22	=22	=22
1D	2r	2e]	1f	1r	2a
.	2F	2d	.	.	2a
1C	2G	1e	2.e	2r	2.cc
.	2G	.	.	2e	.
.	.	.	4d	.	4b
=23	=23	=23	=23	=23	=23
1F	2A	1r	2c	4f	1a
.	.	.	.	4g	.
.	2F	.	1f	4a	.
.	.	.	.	4b	.
2C	2G	2r	.	1cc	1g
2C	2G	2G	2e	.	.
=24	=24	=24	=24	=24	=24
2F	1F	2A	1f	1a	2r
2D	.	2A	.	.	1dd
2G	1r	2B	1r	2r	.
2E	.	2G	.	[2g	2cc
=25	=25	=25	=25	=25	=25
1D	0r	2A	2r	2g]	2.dd
.	.	2A	2A	2f#	.
.	.	.	.	.	4cc
1G	.	1G	2B	2.g	4b
.	.	.	.	.	4a
.	.	.	2B	.	[2b
.	.	.	.	4f	.
=26	=26	=26	=26	=26	=26
0r	2r	0r	2c	4e	4b]
.	.	.	.	4d	4a
.	2c	.	2A	1e	1a
.	2d	.	2B	.	.
.	2d	.	2B	[2d	2g#
=27	=27	=27	=27	=27	=27
2r	1e	1r	1A	2d]	1a
2A	.	.	.	2c	.
2B	2d	2r	1r	1d	2r
2B	[2f	2d	.	.	2dd
=28	=28	=28	=28	=28	=28
2c	4f]	2e	0r	1g	2cc
.	4e	.	.	.	.
2C	1e	2e	.	.	2cc
2D	.	1f	.	2r	2.a
2D	2d	.	.	2f	.
.	.	.	.	.	4b
=29	=29	=29	=29	=29	=29
1C	1e	2e	2r	2g	1cc
.	.	2.g	2e	2g	.
1r	1d	.	2f	1a	1dd
.	.	4f	.	.	.
.	.	[2f	2f	.	.
=30	=30	=30	=30	=30	=30
1C	2.c	2f]	1g	1cc	1r
.	.	2e	.	.	.
.	4B	.	.	.	.
2D	2A	1f	2f	2r	1dd
2D	2d	.	[2a	2f	.
=31	=31	=31	=31	=31	=31
2E	2B	1e	4a]	2g	1g
.	.	.	4g	.	.
2C	2c	.	1g	2e	.
2D	1A	2.d	.	2a	1dd
2D	.	.	2f#	2d	.
.	.	4c	.	.	.
=32	=32	=32	=32	=32	=32
[0G	[0G	[0B	[0g	1.d	2.dd
.	.	.	.	.	4cc
.	.	.	.	.	4dd
.	.	.	.	.	4cc
.	.	.	.	2d	4b
.	.	.	.	.	4a
=33	=33	=33	=33	=33	=33
0G]	0G]	0B]	0g]	0d	0b
*	*	*	*-	*-	*-
!! Pleni
*Ibarit	*Itenor	*Itenor
!Baritone	!Tenor 2	!Tenor 1
*clefF4	*clefGv2	*clefGv2
*k[]	*k[]	*k[]
*G:mix	*G:mix	*G:mix
*M4/2	*M4/2	*M4/2
=34	=34	=34
1c	0r	0r
2c	.	.
2B	.	.
=35	=35	=35
1A	0r	0r
2.G	.	.
4A	.	.
=36	=36	=36
4B	1d	0r
4c	.	.
1B	.	.
.	2d	.
[2A	2c	.
=37	=37	=37
2A]	1B	0r
2G	.	.
2.c	2.A	.
4B	4B	.
=38	=38	=38
1A	4c	1e
.	4d	.
.	1c	.
1G	.	2e
.	[2B	2d
=39	=39	=39
2E	2B]	1c
2F	2A	.
2.G	2.d	2.B
4A	4c	4c
=40	=40	=40
4B	1B	4d
4c	.	4e
4d	.	1d
4e	.	.
2f	1A	.
2e	.	[2c
=41	=41	=41
1d	2F	2c]
.	2G	2B
2.c	2.A	2.e
4d	4B	4d
=42	=42	=42
4e	4c	1c
4f	4d	.
1e	4e	.
.	4f	.
.	2g	1B
[2d	2f	.
=43	=43	=43
2d]	1e	2G
2c#	.	2A
1d	2.d	2.B
.	4e	4c
=44	=44	=44
1r	4f	4d
.	4g	4e
.	1f	4f
.	.	4g
2r	.	2a
2G	[2e	2g
=45	=45	=45
2A	2e]	1f
2B	2d	.
2.c	1e	2.e
8B	.	4f
8A	.	.
=46	=46	=46
2G	1r	4g
.	.	4a
1E	.	1g
.	2r	.
2F	2A	[2f
=47	=47	=47
2G	2B	2f]
2A	2c	2e
2.D	2.d	1f
4E	8c	.
.	8B	.
=48	=48	=48
4F	2A	1r
4G	.	.
4A	1F	.
4B	.	.
4c	.	2r
4d	.	.
[2e	2G	2B
=49	=49	=49
2e]	2A	2c
2d	2B	2d
4c	2.E	2.e
4B	.	.
2e	.	.
.	4F	8d
.	.	8c
=50	=50	=50
1d	4G	2B
.	4A	.
.	4B	1G
.	4c	.
2r	4d	.
.	4e	.
2c	[2f	2A
=51	=51	=51
2d	2f]	2B
2e	2e	2c
2.f	4d	2.F
.	4c	.
.	2f	.
8e	.	4G
8d	.	.
=52	=52	=52
1.c	1e	4A
.	.	4B
.	.	4c
.	.	4d
.	2r	4e
.	.	4f
2B	2d	[2g
=53	=53	=53
2c	2e	2g]
2A	2f	2f
1G	2.g	4e
.	.	4d
.	.	2g
.	8f	.
.	8e	.
=54	=54	=54
2r	1.d	1f
2F	.	.
2G	.	2r
2A	2c	2e
=55	=55	=55
2D	2d	2f
2E	2B	2g
4F	1A	2.a
4G	.	.
4A	.	.
4B	.	8g
.	.	8f
=56	=56	=56
4c	2r	1.e
4d	.	.
2e	2G	.
1f	2A	.
.	2B	2d
=57	=57	=57
1e	2E	2e
.	2F	2c
2.d	4G	1B
.	4A	.
.	4B	.
4e	4c	.
=58	=58	=58
4f	4d	2r
4g	4e	.
1f	2f	2A
.	1g	2B
2e	.	2c
=59	=59	=59
2f	1f	2F
2d	.	2G
[1c	2.e	4A
.	.	4B
.	.	4c
.	4f	4d
=60	=60	=60
2c]	4g	4e
.	4a	4f
2e	1g	2g
1d	.	1a
.	2f#	.
=61	=61	=61
0G	0g	0g
*-	*-	*-
!! Hosanna
**kern	**kern	**kern	**kern	**kern	**kern
*Ibass	*Ibarit	*Itenor	*Itenor	*Icalto	*Icant
!Bassus	!Baritone	!Tenor 2	!Tenor 1	!Altus	!Cantus
*clefF4	*clefF4	*clefGv2	*clefGv2	*clefG2	*clefG2
*k[]	*k[]	*k[]	*k[]	*k[]	*k[]
*G:mix	*G:mix	*G:mix	*G:mix	*G:mix	*G:mix
*M3/2	*M3/2	*M3/2	*M3/2	*M3/2	*M3/2
=62	=62	=62	=62	=62	=62
2.G	1r	1r	1r	1g	1b
4A	.	.	.	.	.
4B	2r	2r	2r	2g	2b
4c	.	.	.	.	.
=63	=63	=63	=63	=63	=63
2d	1r	1r	1r	2f#	2a
2G	.	.	.	1g	2.b
2E	2r	2r	2r	.	.
.	.	.	.	.	4g
=64	=64	=64	=64	=64	=64
2D	1r	1r	2r	2f	4a
.	.	.	.	.	4b
2C	.	.	2g	2e	2cc
2G	2r	2r	2g	2d	2b
=65	=65	=65	=65	=65	=65
2A	1r	1r	2f#	2c	2.cc
1G	.	.	1g	1d	.
.	.	.	.	.	4b
.	2r	2r	.	.	2b
=66	=66	=66	=66	=66	=66
2.D	1r	2r	2.f	4d	1a
.	.	.	.	4e	.
.	.	2f	.	4f	.
4E	.	.	4e	4g	.
4F	2r	2f	2d	2a	2r
4G	.	.	.	.	.
=67	=67	=67	=67	=67	=67
2A	1r	2e	2c	2a	2ee
1D	.	1f	1d	1a	2dd
.	2r	.	.	.	2dd
=68	=68	=68	=68	=68	=68
2A	2r	2.e	1c	2a	2.ee
2.E	2e	.	.	2g	.
.	.	4d	.	.	4ff
.	2e	2c	2r	2g	[2gg
4F	.	.	.	.	.
=69	=69	=69	=69	=69	=69
2G	2d	2B	1r	2g	4gg]
.	.	.	.	.	4ff
2C	1e	1c	.	1g	4ee
.	.	.	.	.	4dd
2C	.	.	2r	.	2cc
=70	=70	=70	=70	=70	=70
1.G	2.d	1B	2r	2.g	4dd
.	.	.	.	.	4cc
.	.	.	2d	.	4b
.	4c	.	.	8f	4a
.	.	.	.	8e	.
.	2B	2r	2d	2d	2g
=71	=71	=71	=71	=71	=71
1r	2A	1r	2c	2e	1a
.	1B	.	1d	4d	.
.	.	.	.	4c	.
2r	.	2r	.	2d	2g#
=72	=72	=72	=72	=72	=72
2r	1A	2r	2.c	1.e	2a
2A	.	2c	.	.	2a
.	.	.	4d	.	.
2A	2r	2c	[2e	.	2a
=73	=73	=73	=73	=73	=73
2E	1r	2B	4e]	1r	2g#
.	.	.	4d	.	.
1A	.	1c	2e	.	2a
.	2r	.	2f#	2r	2a
=74	=74	=74	=74	=74	=74
2G	2r	2.B	1.g	2r	1.dd
1G	2B	.	.	2g	.
.	.	4c	.	.	.
.	2B	[2d	.	2g	.
=75	=75	=75	=75	=75	=75
2D	2A	4d]	1r	2f#	1dd
.	.	4c	.	.	.
1G	1B	2d	.	1g	.
.	.	2e	2r	.	2r
=76	=76	=76	=76	=76	=76
2.F	2.A	1f	2r	2c	2r
.	.	.	2a	1cc	2ff
4G	4B	.	.	.	.
4A	[2c	2r	2a	.	2ff
4B	.	.	.	.	.
=77	=77	=77	=77	=77	=77
2c	4c]	1r	2g	2cc	2ee
.	4B	.	.	.	.
1F	2c	.	1a	2r	1ff
.	2d	2r	.	2a	.
=78	=78	=78	=78	=78	=78
1C	1e	2r	2.g	2.cc	2.ee
.	.	2g	.	.	.
.	.	.	4f	8b	4dd
.	.	.	.	8a	.
2r	2r	2g	2e	2g	4cc
.	.	.	.	.	4b
=79	=79	=79	=79	=79	=79
1r	1r	2f	2d	2a	2.dd
.	.	1g	1e	2g	.
.	.	.	.	.	4cc#
2r	2r	.	.	2e	2dd
=80	=80	=80	=80	=80	=80
1D	2r	2.f	2d	1.a	2.dd
.	2f	.	2r	.	.
.	.	4e	.	.	4ee
2D	2f	2d	2r	.	4ff
.	.	.	.	.	4dd
=81	=81	=81	=81	=81	=81
2A	2e	2c#	1r	1a	2.ee
1D	1f	1d	.	.	.
.	.	.	.	.	4dd
.	.	.	2r	2a	2dd
=82	=82	=82	=82	=82	=82
2A	2.e	2c	1r	2a	2ee
1c	.	2r	.	1g	2ee
.	4d	.	.	.	.
.	2c	2r	2r	.	2ee
=83	=83	=83	=83	=83	=83
2G	2B	1r	1r	1.g	2dd
1C	1c	.	.	.	1ee
.	.	2r	2r	.	.
=84	=84	=84	=84	=84	=84
2G	2B	1r	2r	2r	2.dd
4D	2r	.	2f	2d	.
4E	.	.	.	.	8cc
.	.	.	.	.	8b
4F	2r	2r	2f	2d	2a
4G	.	.	.	.	.
=85	=85	=85	=85	=85	=85
2A	1r	1r	2e	2c#	1.a
1D	.	.	1f	1d	.
.	2r	2r	.	.	.
=86	=86	=86	=86	=86	=86
2A	1r	2r	2.e	2c	2a
2.E	.	2e	.	1g	2r
.	.	.	4d	.	.
.	2r	2e	2c	.	2r
4F	.	.	.	.	.
=87	=87	=87	=87	=87	=87
2G	1r	2d	2B	1.g	2dd
1C	.	1e	1c	.	2cc
.	2r	.	.	.	2cc
=88	=88	=88	=88	=88	=88
1.G	2r	2.d	2B	2.g	4dd
.	.	.	.	.	4cc
.	2d	.	2r	.	4b
.	.	4c	.	8f	4a
.	.	.	.	8e	.
.	2d	2B	2r	2d	2g
=89	=89	=89	=89	=89	=89
1r	2c	2A	1r	2e	2.a
.	1d	1B	.	4d	.
.	.	.	.	4c	4g#
2r	.	.	2r	2d	2g#
=90	=90	=90	=90	=90	=90
2r	2.c	2A	2r	1e	2a
2C	.	2r	2e	.	2g
.	4B	.	.	.	.
2D	2A	2r	2d	2f#	2dd
=91	=91	=91	=91	=91	=91
2E	2G	1r	2c	1g	2g
1D	1A	.	1d	.	1dd
.	.	2r	.	2f#	.
=92	=92	=92	=92	=92	=92
2E	[1.G	2r	2c	[1.g	2r
2G	.	2d	2B	.	2dd
2C	.	2c	2c	.	2ee
=93	=93	=93	=93	=93	=93
2G	1.G]	2B	2d	1.g]	2dd
1C	.	1c	1e	.	1cc
=94	=94	=94	=94	=94	=94
1.G	1.G	1.B	1.d	1.g	1.dd
==	==	==	==	==	==
*-	*-	*-	*-	*-	*-
!!!CDT: 1525/^1526/-1594/2/2
!!!OCY: Italia
!!!AGN: Mass (Canonic)
!!!AST: renaissance, vocal
!!!ASW: Motet (unidentified)
!!!PWK: Masses, Book 8
!!!RNB: Cadence finals: C
!!!YOR: Le Opere Complete, v. 24, p. 157
!!!YOO: Rome, Italy: Fratelli Scalera
!!!END: 1992//
!!!EED: John Miller
!!!YEC: Copyright 2000, John Miller
!!!YEN: United States of America
!!!YEM: Rights to all derivative electronic formats reserved.
!!!YEM: Refer to licensing agreement for further details.
!!!YEM: This file must be accompanied by the licensing agreement.
!!!YEM: A copy of the licensing agreement may be found at http://www.music-cog.ohio-state.edu/HumdrumDatabases/Palestrina/license.txt
!!!EMD: converted to Humdrum by Bret Aarden
